X: 2836
T: Barbara Needham's
R: jig
M: 6/8
K: Adorian
Add cAA|GEG A2G|Add cAA|GEC D3|Add cAA|
GEG A2F|GAB cBA|GEC D2||E/F/|G2E A2E|AcB A2 E/F/|
G2E A2A|GEC D2 E/F/|G2E A2E|AcB A2F|GAB cBA|GEC D3||

